X:9
T:O Come All Ye Faithful
M:4/4
L:1/4
Z:Kevin Goess 12/8/2005
C:John F. Wade, circa 1743. 
Q:1/4=120
N:The non-Latin version.
K:Dmaj
D | "D" D2 A, D | "A" E2 A,2 | "D" F E F "G" G | "D" F2 "A" E D | "Bm" D2 C "Em" B, |
w:O come all ye faith-ful, joy-ful and tri-um-phant: O come ye o
"A" C D E "D" F | "A" C2 "E7" B,>A, | "A" A,3 z | "D" A2 G F | "Em" G2 "D" F2 |
w:come_ ye to Beth_ le-hem; Come and be-hold him
"A" E F "Em" D E | "A" C2 A, || D | "d" D C D E | D2 A, F |
w:born the king of an-gels: O come let us a-dore him, O
F E F G | F2 "A" E "D" F | "A" G F E "D" D | "A" C2 "D" D "G" G | "D" F2 "A" E>D | "D" D3 |]
w:come let us a-dore him, o come let us a-dore him_ Christ_ the Lord.
%lowercase "a" chord on the chorus makes the midi do a drone, which is cool.
W:
W:Sing, choirs of angels, sing in exultation;
W:O sing, all ye citizens of heaven above!
W:Glory to God, all glory in the highest;

